X:50
T:Sally Brown (c)
M:C|
L:1/8
Q:1/4=120
K:EDor
A,|\
DD D4 DE|F2G2 A2F2|dc B4 A2 |B6 A2|
B2B2 A3F|AFD2 G3A |GFE2 G2FF|E6 ||
